resources/svg/mp4.svg

<svg xmlns="http://www.w3.org/2000/svg" viewBox="0 0 15 15" fill="currentColor"><path d="M7 8H7.5C7.77614 8 8 7.77614 8 7.5C8 7.22386 7.77614 7 7.5 7H7V8Z" fill="black"/><path fill-rule="evenodd" clip-rule="evenodd" d="M1 1.5C1 0.671573 1.67157 0 2.5 0H10.7071L14 3.29289V13.5C14 14.3284 13.3284 15 12.5 15H2.5C1.67157 15 1 14.3284 1 13.5V1.5ZM6 6H7.5C8.32843 6 9 6.67157 9 7.5C9 8.32843 8.32843 9 7.5 9H7V11H6V6ZM2.30866 6.03807C2.4955 5.96068 2.71055 6.00346 2.85355 6.14646L3.5 6.79291L4.14645 6.14646C4.28945 6.00346 4.5045 5.96068 4.69134 6.03807C4.87818 6.11547 5 6.29778 5 6.50001V11H4V7.70712L3.5 8.20712L3 7.70712V11H2V6.50001C2 6.29778 2.12182 6.11547 2.30866 6.03807ZM11 6H10V9H12V11H13V6H12V8H11V6Z" fill="black"/></svg>

<svg xmlns="http://www.w3.org/2000/svg" viewBox="0 0 15 15" fill="currentColor"><path d="M7 8h.5a.5.5 0 000-1H7v1z" fill="currentColor"/><path fill-rule="evenodd" clip-rule="evenodd" d="M1 1.5A1.5 1.5 0 012.5 0h8.207L14 3.293V13.5a1.5 1.5 0 01-1.5 1.5h-10A1.5 1.5 0 011 13.5v-12zM6 6h1.5a1.5 1.5 0 110 3H7v2H6V6zm-3.691.038a.5.5 0 01.545.108l.646.647.646-.647A.5.5 0 015 6.5V11H4V7.707l-.5.5-.5-.5V11H2V6.5a.5.5 0 01.309-.462zM11 6h-1v3h2v2h1V6h-1v2h-1V6z" fill="currentColor"/></svg>
